X: 29 
T: King George the Third Delight
M: 2/4
L: 1/8
G: King George the Third Delight
K: D
AAFD|B2G2|G/A/B/c/ dF|BE E2|{F/2G/2}AAFD|B2G2|F/2A/2G/2B/2 A/d/c/e/|
fdd2:||:ff e/f/g/e/|fdB2|A/d/B/d/ AF|BEE2|
ff e/f/g/e/|a/f/e/d/B2|A/d/c/e/ d/f/e/g/|fdd2:|
